images/5991.svg

<?xml version="1.0" encoding="UTF-8"?>
<svg xmlns="http://www.w3.org/2000/svg" xmlns:xlink="http://www.w3.org/1999/xlink" width="300pt" height="300pt" viewBox="0 0 300 300" version="1.1">
<defs>
<g>
<symbol overflow="visible" id="glyph0-0">
<path style="stroke:none;" d="M 0.546875 1.9375 L 0.546875 -7.75 L 6.046875 -7.75 L 6.046875 1.9375 Z M 1.171875 1.328125 L 5.4375 1.328125 L 5.4375 -7.140625 L 1.171875 -7.140625 Z M 1.171875 1.328125 "/>
</symbol>
<symbol overflow="visible" id="glyph0-1">
<path style="stroke:none;" d="M 1.078125 -8.015625 L 2.171875 -8.015625 L 2.171875 -4.734375 L 6.109375 -4.734375 L 6.109375 -8.015625 L 7.1875 -8.015625 L 7.1875 0 L 6.109375 0 L 6.109375 -3.8125 L 2.171875 -3.8125 L 2.171875 0 L 1.078125 0 Z M 1.078125 -8.015625 "/>
</symbol>
<symbol overflow="visible" id="glyph0-2">
<path style="stroke:none;" d="M 4.328125 -7.28125 C 3.546875 -7.28125 2.921875 -6.984375 2.453125 -6.390625 C 1.992188 -5.804688 1.765625 -5.007812 1.765625 -4 C 1.765625 -2.988281 1.992188 -2.1875 2.453125 -1.59375 C 2.921875 -1.007812 3.546875 -0.71875 4.328125 -0.71875 C 5.117188 -0.71875 5.742188 -1.007812 6.203125 -1.59375 C 6.660156 -2.1875 6.890625 -2.988281 6.890625 -4 C 6.890625 -5.007812 6.660156 -5.804688 6.203125 -6.390625 C 5.742188 -6.984375 5.117188 -7.28125 4.328125 -7.28125 Z M 4.328125 -8.171875 C 5.453125 -8.171875 6.351562 -7.789062 7.03125 -7.03125 C 7.707031 -6.28125 8.046875 -5.269531 8.046875 -4 C 8.046875 -2.738281 7.707031 -1.726562 7.03125 -0.96875 C 6.351562 -0.21875 5.453125 0.15625 4.328125 0.15625 C 3.203125 0.15625 2.300781 -0.21875 1.625 -0.96875 C 0.957031 -1.71875 0.625 -2.726562 0.625 -4 C 0.625 -5.269531 0.957031 -6.28125 1.625 -7.03125 C 2.300781 -7.789062 3.203125 -8.171875 4.328125 -8.171875 Z M 4.328125 -8.171875 "/>
</symbol>
</g>
</defs>
<g id="surface34117">
<rect x="0" y="0" width="300" height="300" style="fill:rgb(100%,100%,100%);fill-opacity:1;stroke:none;"/>
<path style=" stroke:none;fill-rule:nonzero;fill:rgb(0%,0%,0%);fill-opacity:1;" d="M 111.394531 161.097656 L 95.144531 181.335938 L 103.054688 185.675781 Z M 111.394531 161.097656 "/>
<path style="fill:none;stroke-width:1.2;stroke-linecap:butt;stroke-linejoin:miter;stroke:rgb(0%,0%,0%);stroke-opacity:1;stroke-miterlimit:10;" d="M 111.394531 161.097656 L 124.269531 183.175781 "/>
<path style="fill:none;stroke-width:1.2;stroke-linecap:butt;stroke-linejoin:miter;stroke:rgb(0%,0%,0%);stroke-opacity:1;stroke-miterlimit:10;" d="M 124.078125 138.90625 L 111.394531 161.097656 "/>
<path style="fill:none;stroke-width:1.2;stroke-linecap:butt;stroke-linejoin:miter;stroke:rgb(0%,0%,0%);stroke-opacity:1;stroke-miterlimit:10;" d="M 86.367188 155.890625 L 111.394531 161.097656 "/>
<path style="fill:none;stroke-width:1.2;stroke-linecap:butt;stroke-linejoin:miter;stroke:rgb(0%,0%,0%);stroke-opacity:1;stroke-miterlimit:10;" d="M 124.269531 183.175781 L 149.828125 183.066406 "/>
<path style=" stroke:none;fill-rule:nonzero;fill:rgb(0%,0%,0%);fill-opacity:1;" d="M 162.511719 160.875 L 145.914062 180.828125 L 153.746094 185.304688 Z M 162.511719 160.875 "/>
<path style="fill:none;stroke-width:1.2;stroke-linecap:butt;stroke-linejoin:miter;stroke:rgb(0%,0%,0%);stroke-opacity:1;stroke-miterlimit:10;" d="M 162.511719 160.875 L 149.636719 138.796875 "/>
<path style="fill:none;stroke-width:1.2;stroke-linecap:butt;stroke-linejoin:miter;stroke:rgb(0%,0%,0%);stroke-opacity:1;stroke-miterlimit:10;" d="M 188.070312 160.765625 L 162.511719 160.875 "/>
<path style="fill:none;stroke-width:1.2;stroke-linecap:butt;stroke-linejoin:miter;stroke:rgb(0%,0%,0%);stroke-opacity:1;stroke-miterlimit:10;" d="M 149.636719 138.796875 L 124.078125 138.90625 "/>
<path style="fill:none;stroke-width:1;stroke-linecap:butt;stroke-linejoin:miter;stroke:rgb(0%,0%,0%);stroke-opacity:1;stroke-miterlimit:10;" d="M 149.636719 138.796875 L 149.636719 138.796875 M 151.554688 136.488281 L 150.648438 135.972656 M 153.472656 134.183594 L 151.664062 133.148438 M 155.390625 131.875 L 152.675781 130.324219 M 157.3125 129.570312 L 153.691406 127.5 M 159.230469 127.265625 L 154.703125 124.675781 M 161.148438 124.957031 L 155.714844 121.855469 M 163.066406 122.652344 L 156.730469 119.03125 M 164.984375 120.34375 L 157.742188 116.207031 M 166.234375 118.84375 L 158.402344 114.367188 "/>
<path style=" stroke:none;fill-rule:nonzero;fill:rgb(0%,0%,0%);fill-opacity:1;" d="M 124.078125 138.90625 L 110.230469 116.953125 L 103.550781 123.019531 Z M 124.078125 138.90625 "/>
<path style="fill:none;stroke-width:1.2;stroke-linecap:butt;stroke-linejoin:miter;stroke:rgb(0%,0%,0%);stroke-opacity:1;stroke-miterlimit:10;" d="M 106.890625 119.988281 L 83.585938 130.484375 "/>
<path style="fill:none;stroke-width:1.2;stroke-linecap:butt;stroke-linejoin:miter;stroke:rgb(0%,0%,0%);stroke-opacity:1;stroke-miterlimit:10;" d="M 83.585938 130.484375 L 86.367188 155.890625 "/>
<path style="fill:none;stroke-width:1;stroke-linecap:butt;stroke-linejoin:miter;stroke:rgb(0%,0%,0%);stroke-opacity:1;stroke-miterlimit:10;" d="M 86.367188 155.890625 L 86.367188 155.890625 M 83.414062 155.382812 L 83.417969 156.425781 M 80.457031 154.875 L 80.464844 156.960938 M 77.5 154.367188 L 77.511719 157.496094 M 74.542969 153.859375 L 74.5625 158.027344 M 71.585938 153.347656 L 71.609375 158.5625 M 68.628906 152.839844 L 68.65625 159.097656 M 65.671875 152.332031 L 65.703125 159.632812 M 62.714844 151.824219 L 62.753906 160.164062 M 60.789062 151.492188 L 60.828125 160.511719 "/>
<path style="fill:none;stroke-width:1.2;stroke-linecap:butt;stroke-linejoin:miter;stroke:rgb(0%,0%,0%);stroke-opacity:1;stroke-miterlimit:10;" d="M 86.367188 155.890625 L 83.546875 168.355469 "/>
<path style="fill:none;stroke-width:1.2;stroke-linecap:butt;stroke-linejoin:miter;stroke:rgb(100%,0%,0%);stroke-opacity:1;stroke-miterlimit:10;" d="M 83.546875 168.355469 L 80.726562 180.820312 "/>
<path style="fill:none;stroke-width:1.2;stroke-linecap:butt;stroke-linejoin:miter;stroke:rgb(0%,0%,0%);stroke-opacity:1;stroke-miterlimit:10;" d="M 60.808594 156.003906 L 35.25 156.113281 "/>
<path style="fill:none;stroke-width:1.2;stroke-linecap:butt;stroke-linejoin:miter;stroke:rgb(0%,0%,0%);stroke-opacity:1;stroke-miterlimit:10;" d="M 58.226562 150 L 37.78125 150.089844 "/>
<path style="fill:none;stroke-width:1.2;stroke-linecap:butt;stroke-linejoin:miter;stroke:rgb(0%,0%,0%);stroke-opacity:1;stroke-miterlimit:10;" d="M 58.28125 162.027344 L 37.832031 162.117188 "/>
<path style=" stroke:none;fill-rule:nonzero;fill:rgb(100%,100%,100%);fill-opacity:1;" d="M 72.726562 174.320312 L 89.726562 174.320312 L 89.726562 187.320312 L 72.726562 187.320312 Z M 72.726562 174.320312 "/>
<g style="fill:rgb(100%,0%,0%);fill-opacity:1;">
  <use xlink:href="#glyph0-1" x="72.726562" y="184.22168"/>
  <use xlink:href="#glyph0-2" x="80.750977" y="184.22168"/>
</g>
<path style="fill:none;stroke-width:1.2;stroke-linecap:butt;stroke-linejoin:miter;stroke:rgb(0%,0%,0%);stroke-opacity:1;stroke-miterlimit:10;" d="M 162.320312 116.605469 L 187.878906 116.492188 "/>
<path style="fill:none;stroke-width:1.2;stroke-linecap:butt;stroke-linejoin:miter;stroke:rgb(0%,0%,0%);stroke-opacity:1;stroke-miterlimit:10;" d="M 187.878906 116.492188 L 200.753906 138.574219 "/>
<path style="fill:none;stroke-width:1.2;stroke-linecap:butt;stroke-linejoin:miter;stroke:rgb(0%,0%,0%);stroke-opacity:1;stroke-miterlimit:10;" d="M 200.753906 138.574219 L 188.070312 160.765625 "/>
<path style="fill:none;stroke-width:1.2;stroke-linecap:butt;stroke-linejoin:miter;stroke:rgb(0%,0%,0%);stroke-opacity:1;stroke-miterlimit:10;" d="M 204.707031 143.777344 L 194.5625 161.53125 "/>
<path style="fill:none;stroke-width:1.2;stroke-linecap:butt;stroke-linejoin:miter;stroke:rgb(0%,0%,0%);stroke-opacity:1;stroke-miterlimit:10;" d="M 226.316406 138.460938 L 200.753906 138.574219 "/>
<path style="fill:none;stroke-width:1.2;stroke-linecap:butt;stroke-linejoin:miter;stroke:rgb(0%,0%,0%);stroke-opacity:1;stroke-miterlimit:10;" d="M 188.070312 160.765625 L 200.949219 182.84375 "/>
<path style="fill:none;stroke-width:1.2;stroke-linecap:butt;stroke-linejoin:miter;stroke:rgb(0%,0%,0%);stroke-opacity:1;stroke-miterlimit:10;" d="M 200.949219 182.84375 L 226.507812 182.734375 "/>
<path style="fill:none;stroke-width:1.2;stroke-linecap:butt;stroke-linejoin:miter;stroke:rgb(0%,0%,0%);stroke-opacity:1;stroke-miterlimit:10;" d="M 203.476562 176.820312 L 223.925781 176.730469 "/>
<path style="fill:none;stroke-width:1.2;stroke-linecap:butt;stroke-linejoin:miter;stroke:rgb(0%,0%,0%);stroke-opacity:1;stroke-miterlimit:10;" d="M 226.507812 182.734375 L 239.191406 160.542969 "/>
<path style="fill:none;stroke-width:1.2;stroke-linecap:butt;stroke-linejoin:miter;stroke:rgb(0%,0%,0%);stroke-opacity:1;stroke-miterlimit:10;" d="M 239.191406 160.542969 L 226.316406 138.460938 "/>
<path style="fill:none;stroke-width:1.2;stroke-linecap:butt;stroke-linejoin:miter;stroke:rgb(0%,0%,0%);stroke-opacity:1;stroke-miterlimit:10;" d="M 232.707031 161.363281 L 222.40625 143.699219 "/>
<path style="fill:none;stroke-width:1.2;stroke-linecap:butt;stroke-linejoin:miter;stroke:rgb(0%,0%,0%);stroke-opacity:1;stroke-miterlimit:10;" d="M 239.191406 160.542969 L 251.96875 160.484375 "/>
<path style="fill:none;stroke-width:1.2;stroke-linecap:butt;stroke-linejoin:miter;stroke:rgb(100%,0%,0%);stroke-opacity:1;stroke-miterlimit:10;" d="M 251.96875 160.484375 L 264.75 160.429688 "/>
<path style=" stroke:none;fill-rule:nonzero;fill:rgb(100%,100%,100%);fill-opacity:1;" d="M 256.75 153.929688 L 273.75 153.929688 L 273.75 166.929688 L 256.75 166.929688 Z M 256.75 153.929688 "/>
<g style="fill:rgb(100%,0%,0%);fill-opacity:1;">
  <use xlink:href="#glyph0-2" x="256.75" y="163.831055"/>
  <use xlink:href="#glyph0-1" x="265.150391" y="163.831055"/>
</g>
</g>
</svg>

<svg xmlns="http://www.w3.org/2000/svg" xmlns:xlink="http://www.w3.org/1999/xlink" width="300pt" height="300pt" viewBox="0 0 300 300"><defs><symbol overflow="visible"><path d="M.547 1.938V-7.75h5.5v9.688zm.625-.61h4.266v-8.47H1.171zm0 0"/></symbol><symbol overflow="visible" id="a"><path d="M1.078-8.016h1.094v3.282H6.11v-3.282h1.077V0H6.11v-3.813H2.17V0H1.078zm0 0"/></symbol><symbol overflow="visible" id="b"><path d="M4.328-7.28c-.78 0-1.406.296-1.875.89-.46.585-.687 1.382-.687 2.39 0 1.012.226 1.813.687 2.406.47.586 1.094.875 1.875.875.79 0 1.414-.288 1.875-.874.457-.593.688-1.394.688-2.406 0-1.008-.23-1.805-.687-2.39-.46-.594-1.086-.89-1.875-.89zm0-.892c1.125 0 2.024.383 2.703 1.14C7.708-6.28 8.048-5.27 8.048-4c0 1.262-.34 2.273-1.016 3.03C6.353-.22 5.454.157 4.33.157S2.3-.22 1.625-.97c-.668-.75-1-1.757-1-3.03 0-1.27.332-2.28 1-3.03.676-.76 1.578-1.142 2.703-1.142zm0 0"/></symbol></defs><g><path fill="#fff" d="M0 0h300v300H0z"/><path d="M111.395 161.098l-16.25 20.238 7.91 4.34zm0 0"/><path d="M111.395 161.098l12.875 22.078M124.078 138.906l-12.683 22.192M86.367 155.89l25.028 5.208M124.27 183.176l25.558-.11" stroke-width="1.2" stroke="#000" stroke-miterlimit="10" fill="none"/><path d="M162.512 160.875l-16.598 19.953 7.832 4.477zm0 0"/><path d="M162.512 160.875l-12.875-22.078M188.07 160.766l-25.558.11M149.637 138.797l-25.56.11" stroke-width="1.2" stroke="#000" stroke-miterlimit="10" fill="none"/><path d="M149.637 138.797m1.918-2.31l-.907-.514m2.825-1.79l-1.81-1.035m3.728-1.273l-2.714-1.55m4.637-.755l-3.622-2.07m5.54-.234l-4.527-2.59m6.445.28l-5.433-3.1m7.35.796l-6.335-3.62m8.254 1.312l-7.242-4.137m8.492 2.637l-7.832-4.477" stroke="#000" stroke-miterlimit="10" fill="none"/><path d="M124.078 138.906l-13.848-21.953-6.68 6.067zm0 0"/><path d="M106.89 119.988l-23.304 10.496M83.586 130.484l2.78 25.407" stroke-width="1.2" stroke="#000" stroke-miterlimit="10" fill="none"/><path d="M86.367 155.89m-2.953-.507l.004 1.043m-2.96-1.55l.007 2.085m-2.965-2.593l.012 3.13m-2.97-3.638l.02 4.167m-2.976-4.68l.023 5.215m-2.98-5.722l.026 6.258m-2.984-6.766l.03 7.3m-2.987-7.808l.04 8.34m-1.966-8.672l.038 9.02" stroke="#000" stroke-miterlimit="10" fill="none"/><path d="M86.367 155.89l-2.82 12.465" stroke-width="1.2" stroke="#000" stroke-miterlimit="10" fill="none"/><path d="M83.547 168.355l-2.82 12.465" stroke-width="1.2" stroke="#f00" stroke-miterlimit="10" fill="none"/><path d="M60.81 156.004l-25.56.11M58.227 150l-20.446.09M58.28 162.027l-20.448.09" stroke-width="1.2" stroke="#000" stroke-miterlimit="10" fill="none"/><path d="M72.727 174.32h17v13h-17zm0 0" fill="#fff"/><g fill="#f00"><use xlink:href="#a" x="72.727" y="184.222"/><use xlink:href="#b" x="80.751" y="184.222"/></g><path d="M162.32 116.605l25.56-.113M187.88 116.492l12.874 22.082M200.754 138.574l-12.684 22.192M204.707 143.777l-10.144 17.754M226.316 138.46l-25.562.114M188.07 160.766l12.88 22.078M200.95 182.844l25.558-.11M203.477 176.82l20.45-.09M226.508 182.734l12.683-22.19M239.19 160.543l-12.874-22.082M232.707 161.363l-10.3-17.664M239.19 160.543l12.78-.06" stroke-width="1.2" stroke="#000" stroke-miterlimit="10" fill="none"/><path d="M251.97 160.484l12.78-.054" stroke-width="1.2" stroke="#f00" stroke-miterlimit="10" fill="none"/><path d="M256.75 153.93h17v13h-17zm0 0" fill="#fff"/><g fill="#f00"><use xlink:href="#b" x="256.75" y="163.831"/><use xlink:href="#a" x="265.15" y="163.831"/></g></g></svg>
